packages/core/src/svgs/tokens/mono/AIMX.svg

<svg width="24" height="24" viewBox="0 0 24 24" fill="none" xmlns="http://www.w3.org/2000/svg">
<path d="M10.475 3.01622L10.3821 3.08772C9.02368 4.50333 9.87448 7.67058 9.13095 10.1657C8.43021 12.5251 4.834 13.8692 3.31114 15.3134C2.93095 15.6239 2.61892 16.0094 2.39454 16.446C2.17018 16.8825 2.03831 17.3607 2.00718 17.8506C1.97605 18.3404 2.04634 18.8314 2.21363 19.2928C2.38093 19.7542 2.64166 20.1763 2.97948 20.5323C3.31731 20.8885 3.72497 21.1709 4.177 21.3622C4.629 21.5536 5.11563 21.6495 5.60644 21.6442C6.09724 21.6388 6.58167 21.5324 7.02942 21.3312C7.47715 21.1302 7.87858 20.8387 8.20857 20.4754H8.22289C8.49456 20.2108 8.70188 19.882 8.83768 19.5245L8.87354 19.4244V19.3887C8.93076 19.2457 8.98081 19.0956 9.01651 18.9455C9.70282 16.4288 9.27392 12.1533 9.86013 10.6233C10.5965 8.70011 11.9264 7.72778 13.0346 6.66249C13.7995 5.93324 14.2858 5.16108 14.1713 4.31744V4.26739C14.1395 3.96196 14.0424 3.66693 13.8867 3.40223C13.7311 3.13754 13.5204 2.90935 13.269 2.73312C13.0174 2.55689 12.731 2.4367 12.4292 2.38069C12.1273 2.32469 11.8168 2.33418 11.5189 2.4085C11.1185 2.5086 10.7538 2.7231 10.475 3.01622ZM17.7103 19.5102C17.7103 20.079 17.9364 20.6247 18.3386 21.0269C18.7408 21.4291 19.2863 21.6552 19.8552 21.6552C20.424 21.6552 20.9695 21.4291 21.3719 21.0269C21.7741 20.6247 22 20.079 22 19.5102C22 18.9415 21.7741 18.3958 21.3719 17.9936C20.9695 17.5914 20.424 17.3653 19.8552 17.3653C19.2863 17.3653 18.7408 17.5914 18.3386 17.9936C17.9364 18.3958 17.7103 18.9415 17.7103 19.5102Z" fill="white"/>
</svg>

<svg xmlns="http://www.w3.org/2000/svg" width="24" height="24" fill="none" viewBox="0 0 24 24">
    <path fill="#fff" d="m10.475 3.016-.093.072c-1.358 1.415-.508 4.583-1.251 7.078-.7 2.36-4.297 3.703-5.82 5.147a3.568 3.568 0 1 0 4.898 5.162h.014c.272-.264.479-.593.615-.95l.036-.1v-.036q.087-.216.143-.444c.686-2.516.257-6.792.843-8.322.737-1.923 2.066-2.895 3.175-3.96.765-.73 1.25-1.502 1.136-2.346v-.05a2.144 2.144 0 0 0-2.652-1.859c-.4.1-.765.315-1.044.608M17.71 19.51a2.145 2.145 0 1 0 4.29 0 2.145 2.145 0 0 0-4.29 0"/>
</svg>
